; generated by SuperSlicer 2.4 on 2023-03-13 at 13:04:37 UTC

; 

; external perimeters extrusion width = 0.42mm
; perimeters extrusion width = 0.46mm
; infill extrusion width = 0.44mm
; solid infill extrusion width = 0.46mm
; top infill extrusion width = 0.44mm
; support material extrusion width = 0.40mm
; first layer extrusion width = 0.60mm

; external perimeters extrusion width = 0.42mm
; perimeters extrusion width = 0.46mm
; infill extrusion width = 0.44mm
; solid infill extrusion width = 0.46mm
; top infill extrusion width = 0.44mm
; support material extrusion width = 0.40mm
; first layer extrusion width = 0.60mm

; object:{"name":"steering-Steering lFillet002","id":"steering-Steering lFillet002.stl id:0 copy 0","object_center":[284.310489,232.156255,0.000000],"boundingbox_center":[284.310489,232.156255,15.000000],"boundingbox_size":[54.000000,38.400002,30.000000]}
; object:{"name":"steering-Steering lFillet002","id":"steering-Steering lFillet002.stl id:1 copy 0","object_center":[222.665220,230.993928,0.000000],"boundingbox_center":[222.665220,230.993928,15.000000],"boundingbox_size":[54.000000,38.400002,30.000000]}
; Total objects to print: 2
M486 T2
; plater:{"center":[253.487854,231.575092,0.000000],"boundingbox_center":[253.487854,231.575092,15.000000],"boundingbox_size":[115.645269,39.562329,30.000000]}

M140 S40 ; set bed temperature
;TYPE:Custom
G21 ;metric values
G90 ;absolute positioning
M82 ;set extruder to absolute mode
M107 ;start with the fan off
M117 Homing X/Y ...
G28 X0 Y0 ;move X/Y to min endstops
M117 Homing Z ...
G28 Z0 ;move Z to min endstops
G1 Z15.0 F240 ;move the platform down 15mm
M117 Heating ...
M104 S200
 ; set extruder temp
M109 S200
 ; wait for extruder temp
M117 Start cleaning ...
G92 E0 ;zero the extruded length
G1 F200 E10 ;extrude 10mm of feed stock
G92 E0 ;zero the extruded length again
M117 Intro line ...
G1 Z2.0 F3000 ; Move Z Axis up little to prevent scratching of Heat Bed
G1 X0.1 Y20 Z75% F5000.0 ; Move to start position
G1 X0.1 Y200.0 Z75% F1500.0 E15 ; Draw the first line
G1 X0.4 Y200.0 Z75% F5000.0 ; Move to side a little
G1 X0.4 Y20 Z0.375% F1500.0 E30 ; Draw the second line
G92 E0 ; Reset Extruder
G1 E-1 F500 ; Retract filiment by 1 mm
G1 Z2.0 F3000 ; Move Z Axis up little to prevent scratching of Heat Bed
G1 X5 Y20 Z0.3 F240 ; Move over to prevent blob squish
G92 E0 ; Reset Extruder
M117 Printing...
M107
G21 ; set units to millimeters
G90 ; use absolute coordinates
M83 ; use relative distances for extrusion
; Filament gcode
;_TOOLCHANGE 0
M190 S40 ; set bed temperature and wait for it to be reached
M107
;LAYER_CHANGE
;Z:0.3
;HEIGHT:0.3
; BEFORE_LAYER_CHANGE 0 @ 0.3mm
G1 Z0.3 F7800
; AFTER_LAYER_CHANGE 0 @ 0.3mm
G92 E0
G1 E-7 F1800
G1 Z0.5 F7800
G1 X190.92 Y226.128
G1 Z0.3
G1 E7 F1800
;TYPE:Skirt
;WIDTH:0.44
G1 X189.693 Y227.164 E0.07521
G1 X188.554 Y229.064 E0.10381
G1 X188.157 Y231.244 E0.10381
G1 X188.157 Y242.172 E0.51194
G1 X188.271 Y243.353 E0.05562
G1 X189.077 Y245.418 E0.10381
G1 X190.558 Y247.066 E0.10381
G1 X192.525 Y248.086 E0.10381
G1 X229.667 Y259.514 E1.82059
G1 X231.27 Y259.784 E0.07613
G1 X264.561 Y260.95 E1.56066
G1 X275.489 Y260.95 E0.51194
G1 X277.309 Y260.677 E0.08621
G1 X314.451 Y249.248 E1.82059
G1 X315.546 Y248.792 E0.05562
G1 X317.282 Y247.415 E0.10381
G1 X318.422 Y245.514 E0.10381
G1 X318.819 Y243.334 E0.10381
G1 X318.819 Y232.407 E0.51194
G1 X318.544 Y230.584 E0.08637
G1 X317.523 Y228.617 E0.10381
G1 X315.874 Y227.137 E0.10381
G1 X278.732 Y204.28 E2.04316
G1 X275.706 Y203.366 E0.14808
G1 X242.632 Y202.204 E1.55047
G1 X231.487 Y202.2 E0.52212
G1 X230.309 Y202.313 E0.05546
G1 X228.244 Y203.118 E0.10381
G1 X191.102 Y225.974 E2.04316
G1 X190.966 Y226.089 E0.00835
G1 E-4.9
;WIPE_START
G1 F6240
G1 X189.693 Y227.164 E-0.45638
G1 X188.554 Y229.064 E-0.60724
G1 X188.157 Y231.244 E-0.60724
G1 X188.157 Y232.427 E-0.32413
;WIPE_END
G1 E-0.105 F1800
G1 Z0.5 F7800
; printing object steering-Steering lFillet002.stl id:0 copy 0
M486 S0
G1 X261.704 Y245.933
G1 Z0.3
G1 E7 F1800
;TYPE:Support material
;WIDTH:0.604
G1 X275.489 Y245.938 E0.92776
G1 X275.489 Y254.762 E0.59395
G1 X264.561 Y254.762 E0.73546
G1 X264.561 Y249.048 E0.38459
G1 X261.704 Y249.048 E0.19229
G1 X261.704 Y245.993 E0.20561
G1 X274.717 Y254.628 F7800
G1 F1800
G1 X274.717 Y246.304 E0.56019
G1 X274.118 Y246.304 E0.04035
G1 X274.118 Y254.395 E0.54459
G1 X273.518 Y254.395 E0.04035
G1 X273.518 Y246.304 E0.5446
G1 X272.919 Y246.304 E0.04035
G1 X272.919 Y254.395 E0.54461
G1 X272.319 Y254.395 E0.04035
G1 X272.319 Y246.303 E0.54463
G1 X271.719 Y246.303 E0.04035
G1 X271.719 Y254.395 E0.54464
G1 X271.12 Y254.395 E0.04035
G1 X271.12 Y246.303 E0.54465
G1 X270.52 Y246.303 E0.04035
G1 X270.52 Y254.395 E0.54466
G1 X269.921 Y254.395 E0.04035
G1 X269.921 Y246.303 E0.54468
G1 X269.321 Y246.303 E0.04035
G1 X269.321 Y254.395 E0.54469
G1 X268.721 Y254.395 E0.04035
G1 X268.721 Y246.302 E0.5447
G1 X268.122 Y246.302 E0.04035
G1 X268.122 Y254.395 E0.54471
G1 X267.522 Y254.395 E0.04035
G1 X267.522 Y246.302 E0.54472
G1 X266.923 Y246.302 E0.04035
G1 X266.923 Y254.395 E0.54474
G1 X266.323 Y254.395 E0.04035
G1 X266.323 Y246.302 E0.54475
G1 X265.724 Y246.301 E0.04035
G1 X265.724 Y254.395 E0.54476
G1 X265.124 Y254.395 E0.04035
G1 X265.124 Y246.301 E0.54477
G1 X264.524 Y246.301 E0.04035
G1 X264.524 Y248.681 E0.1602
G1 X263.925 Y248.681 E0.04035
G1 X263.925 Y246.301 E0.16021
G1 X263.325 Y246.301 E0.04035
G1 X263.325 Y248.681 E0.16022
G1 X262.726 Y248.681 E0.04035
G1 X262.726 Y246.301 E0.16024
G1 X262.126 Y246.3 E0.04035
G1 X262.126 Y248.913 E0.17586
G1 E-4.9
;WIPE_START
G1 F6240
G1 X262.126 Y246.3 E-0.71606
G1 X262.726 Y246.301 E-0.16431
G1 X262.726 Y248.681 E-0.65242
G1 X263.325 Y248.681 E-0.16431
G1 X263.325 Y247.594 E-0.29791
;WIPE_END
G1 E-0.105 F1800
G1 Z0.5 F7800
G1 X281.704 Y243.334
G1 Z0.3
G1 E7 F1800
G1 X281.704 Y243.057 E0.01863
G1 X281.736 Y242.968 E0.00636
G1 X281.881 Y242.563 E0.029
G1 X281.892 Y242.526 E0.00258
G1 X281.998 Y242.103 E0.02932
G1 X282.007 Y242.056 E0.00323
G1 X282.084 Y241.427 E0.04269
G1 X282.087 Y241.38 E0.00313
G1 X282.089 Y240.938 E0.02977
G1 X310.394 Y240.938 E1.90503
G1 X310.852 Y240.48 E0.04359
G1 X310.852 Y236.832 E0.2455
G1 X310.394 Y236.374 E0.04359
G1 X282.092 Y236.374 E1.90482
G1 X282.092 Y232.407 E0.26705
G1 X312.631 Y232.407 E2.05537
G1 X312.631 Y243.334 E0.73546
G1 X281.764 Y243.334 E2.07748
G1 X311.891 Y243.199 F7800
G1 F1800
G1 X311.891 Y232.774 E0.70169
G1 X311.291 Y232.774 E0.04035
G1 X311.291 Y242.967 E0.68607
G1 X310.692 Y242.967 E0.04035
G1 X310.692 Y241.159 E0.1217
G1 X310.546 Y241.305 E0.0139
G1 X310.092 Y241.305 E0.03053
G1 X310.092 Y242.967 E0.11187
G1 X309.493 Y242.967 E0.04035
G1 X309.493 Y241.305 E0.11187
G1 X308.893 Y241.305 E0.04035
G1 X308.893 Y242.967 E0.11187
G1 X308.294 Y242.967 E0.04035
G1 X308.294 Y241.305 E0.11187
G1 X307.694 Y241.305 E0.04035
G1 X307.694 Y242.967 E0.11187
G1 X307.094 Y242.967 E0.04035
G1 X307.094 Y241.305 E0.11187
G1 X306.495 Y241.305 E0.04035
G1 X306.495 Y242.967 E0.11187
G1 X305.895 Y242.967 E0.04035
G1 X305.895 Y241.305 E0.11187
G1 X305.296 Y241.305 E0.04035
G1 X305.296 Y242.967 E0.11187
G1 X304.696 Y242.967 E0.04035
G1 X304.696 Y241.305 E0.11187
G1 X304.097 Y241.305 E0.04035
G1 X304.097 Y242.967 E0.11187
G1 X303.497 Y242.967 E0.04035
G1 X303.497 Y241.305 E0.11187
G1 X302.897 Y241.305 E0.04035
G1 X302.897 Y242.967 E0.11187
G1 X302.298 Y242.967 E0.04035
G1 X302.298 Y241.305 E0.11187
G1 X301.698 Y241.305 E0.04035
G1 X301.698 Y242.967 E0.11187
G1 X301.099 Y242.967 E0.04035
G1 X301.099 Y241.305 E0.11187
G1 X300.499 Y241.305 E0.04035
G1 X300.499 Y242.967 E0.11187
G1 X299.899 Y242.967 E0.04035
G1 X299.899 Y241.305 E0.11187
G1 X299.3 Y241.305 E0.04035
G1 X299.3 Y242.967 E0.11187
G1 X298.7 Y242.967 E0.04035
G1 X298.7 Y241.305 E0.11187
G1 X298.101 Y241.305 E0.04035
G1 X298.101 Y242.967 E0.11187
G1 X297.501 Y242.967 E0.04035
G1 X297.501 Y241.305 E0.11187
G1 X296.902 Y241.305 E0.04035
G1 X296.902 Y242.967 E0.11187
G1 X296.302 Y242.967 E0.04035
G1 X296.302 Y241.305 E0.11187
G1 X295.702 Y241.305 E0.04035
G1 X295.702 Y242.967 E0.11187
G1 X295.103 Y242.967 E0.04035
G1 X295.103 Y241.305 E0.11187
G1 X294.503 Y241.305 E0.04035
G1 X294.503 Y242.967 E0.11187
G1 X293.904 Y242.967 E0.04035
G1 X293.904 Y241.305 E0.11187
G1 X293.304 Y241.305 E0.04035
G1 X293.304 Y242.967 E0.11187
G1 X292.705 Y242.967 E0.04035
G1 X292.705 Y241.305 E0.11187
G1 X292.105 Y241.305 E0.04035
G1 X292.105 Y242.967 E0.11187
G1 X291.505 Y242.967 E0.04035
G1 X291.505 Y241.305 E0.11187
G1 X290.906 Y241.305 E0.04035
G1 X290.906 Y242.967 E0.11187
G1 X290.306 Y242.967 E0.04035
G1 X290.306 Y241.305 E0.11187
G1 X289.707 Y241.305 E0.04035
G1 X289.707 Y242.967 E0.11187
G1 X289.107 Y242.967 E0.04035
G1 X289.107 Y241.305 E0.11187
G1 X288.508 Y241.305 E0.04035
G1 X288.508 Y242.967 E0.11187
G1 X287.908 Y242.967 E0.04035
G1 X287.908 Y241.305 E0.11187
G1 X287.308 Y241.305 E0.04035
G1 X287.308 Y242.967 E0.11187
G1 X286.709 Y242.967 E0.04035
G1 X286.709 Y241.305 E0.11187
G1 X286.109 Y241.305 E0.04035
G1 X286.109 Y242.967 E0.11187
G1 X285.51 Y242.967 E0.04035
G1 X285.51 Y241.305 E0.11187
G1 X284.91 Y241.305 E0.04035
G1 X284.91 Y242.967 E0.11187
G1 X284.31 Y242.967 E0.04035
G1 X284.31 Y241.305 E0.11187
G1 X283.711 Y241.305 E0.04035
G1 X283.711 Y242.967 E0.11187
G1 X283.111 Y242.967 E0.04035
G1 X283.111 Y241.305 E0.11187
G1 X282.512 Y241.305 E0.04035
G1 X282.512 Y243.199 E0.12749
G1 E-4.9
;WIPE_START
G1 F6240
G1 X282.512 Y241.305 E-0.51909
G1 X283.111 Y241.305 E-0.16431
G1 X283.111 Y242.967 E-0.4555
G1 X283.711 Y242.967 E-0.16431
G1 X283.711 Y241.305 E-0.4555
G1 X284.31 Y241.305 E-0.16431
G1 X284.31 Y241.568 E-0.072
;WIPE_END
G1 E-0.105 F1800
G1 Z0.5 F7800
G1 X310.692 Y236.482
G1 Z0.3
G1 E7 F1800
G1 X310.692 Y232.774 E0.24957
G1 X310.092 Y232.774 E0.04035
G1 X310.092 Y236.008 E0.21765
G1 X309.493 Y236.008 E0.04035
G1 X309.493 Y232.774 E0.21765
G1 X308.893 Y232.774 E0.04035
G1 X308.893 Y236.008 E0.21765
G1 X308.294 Y236.008 E0.04035
G1 X308.294 Y232.774 E0.21765
G1 X307.694 Y232.774 E0.04035
G1 X307.694 Y236.008 E0.21765
G1 X307.094 Y236.008 E0.04035
G1 X307.094 Y232.774 E0.21765
G1 X306.495 Y232.774 E0.04035
G1 X306.495 Y236.008 E0.21765
G1 X305.895 Y236.008 E0.04035
G1 X305.895 Y232.774 E0.21765
G1 X305.296 Y232.774 E0.04035
G1 X305.296 Y236.008 E0.21765
G1 X304.696 Y236.008 E0.04035
G1 X304.696 Y232.774 E0.21765
G1 X304.097 Y232.774 E0.04035
G1 X304.097 Y236.008 E0.21765
G1 X303.497 Y236.008 E0.04035
G1 X303.497 Y232.774 E0.21765
G1 X302.897 Y232.774 E0.04035
G1 X302.897 Y236.008 E0.21765
G1 X302.298 Y236.008 E0.04035
G1 X302.298 Y232.774 E0.21765
G1 X301.698 Y232.774 E0.04035
G1 X301.698 Y236.008 E0.21765
G1 X301.099 Y236.008 E0.04035
G1 X301.099 Y232.774 E0.21765
G1 X300.499 Y232.774 E0.04035
G1 X300.499 Y236.008 E0.21765
G1 X299.899 Y236.008 E0.04035
G1 X299.899 Y232.774 E0.21765
G1 X299.3 Y232.774 E0.04035
G1 X299.3 Y236.008 E0.21765
G1 X298.7 Y236.008 E0.04035
G1 X298.7 Y232.774 E0.21765
G1 X298.101 Y232.774 E0.04035
G1 X298.101 Y236.008 E0.21765
G1 X297.501 Y236.008 E0.04035
G1 X297.501 Y232.774 E0.21765
G1 X296.902 Y232.774 E0.04035
G1 X296.902 Y236.008 E0.21765
G1 X296.302 Y236.008 E0.04035
G1 X296.302 Y232.774 E0.21765
G1 X295.702 Y232.774 E0.04035
G1 X295.702 Y236.008 E0.21765
G1 X295.103 Y236.008 E0.04035
G1 X295.103 Y232.774 E0.21765
G1 X294.503 Y232.774 E0.04035
G1 X294.503 Y236.008 E0.21765
G1 X293.904 Y236.008 E0.04035
G1 X293.904 Y232.774 E0.21765
G1 X293.304 Y232.774 E0.04035
G1 X293.304 Y236.008 E0.21765
G1 X292.705 Y236.008 E0.04035
G1 X292.705 Y232.774 E0.21765
G1 X292.105 Y232.774 E0.04035
G1 X292.105 Y236.008 E0.21765
G1 X291.505 Y236.008 E0.04035
G1 X291.505 Y232.774 E0.21765
G1 X290.906 Y232.774 E0.04035
G1 X290.906 Y236.008 E0.21765
G1 X290.306 Y236.008 E0.04035
G1 X290.306 Y232.774 E0.21765
G1 X289.707 Y232.774 E0.04035
G1 X289.707 Y236.008 E0.21765
G1 X289.107 Y236.008 E0.04035
G1 X289.107 Y232.774 E0.21765
G1 X288.508 Y232.774 E0.04035
G1 X288.508 Y236.008 E0.21765
G1 X287.908 Y236.008 E0.04035
G1 X287.908 Y232.774 E0.21765
G1 X287.308 Y232.774 E0.04035
G1 X287.308 Y236.008 E0.21765
G1 X286.709 Y236.008 E0.04035
G1 X286.709 Y232.774 E0.21765
G1 X286.109 Y232.774 E0.04035
G1 X286.109 Y236.008 E0.21765
G1 X285.51 Y236.008 E0.04035
G1 X285.51 Y232.774 E0.21765
G1 X284.91 Y232.774 E0.04035
G1 X284.91 Y236.008 E0.21765
G1 X284.31 Y236.008 E0.04035
G1 X284.31 Y232.774 E0.21765
G1 X283.711 Y232.774 E0.04035
G1 X283.711 Y236.008 E0.21765
G1 X283.111 Y236.008 E0.04035
G1 X283.111 Y232.774 E0.21765
G1 X282.512 Y232.774 E0.04035
G1 X282.512 Y236.24 E0.23327
G1 E-4.9
;WIPE_START
G1 F6240
G1 X282.512 Y232.774 E-0.94979
G1 X283.111 Y232.774 E-0.16431
G1 X283.111 Y235.988 E-0.8809
;WIPE_END
G1 E-0.105 F1800
G1 Z0.5 F7800
G1 X275.489 Y218.374
G1 Z0.3
G1 E7 F1800
G1 X261.704 Y218.374 E0.92776
G1 X261.704 Y215.264 E0.20933
G1 X264.561 Y215.264 E0.19229
G1 X264.561 Y209.55 E0.38459
G1 X275.489 Y209.55 E0.73546
G1 X275.489 Y218.314 E0.58988
G1 X274.717 Y218.24 F7800
G1 F1800
G1 X274.717 Y209.917 E0.56014
G1 X274.118 Y209.917 E0.04035
G1 X274.118 Y218.008 E0.54453
G1 X273.518 Y218.008 E0.04035
G1 X273.518 Y209.917 E0.54453
G1 X272.919 Y209.917 E0.04035
G1 X272.919 Y218.008 E0.54453
G1 X272.319 Y218.008 E0.04035
G1 X272.319 Y209.917 E0.54453
G1 X271.719 Y209.917 E0.04035
G1 X271.719 Y218.008 E0.54453
G1 X271.12 Y218.008 E0.04035
G1 X271.12 Y209.917 E0.54453
G1 X270.52 Y209.917 E0.04035
G1 X270.52 Y218.008 E0.54453
G1 X269.921 Y218.008 E0.04035
G1 X269.921 Y209.917 E0.54453
G1 X269.321 Y209.917 E0.04035
G1 X269.321 Y218.008 E0.54453
G1 X268.721 Y218.008 E0.04035
G1 X268.721 Y209.917 E0.54453
G1 X268.122 Y209.917 E0.04035
G1 X268.122 Y218.008 E0.54453
G1 X267.522 Y218.008 E0.04035
G1 X267.522 Y209.917 E0.54453
G1 X266.923 Y209.917 E0.04035
G1 X266.923 Y218.008 E0.54453
G1 X266.323 Y218.008 E0.04035
G1 X266.323 Y209.917 E0.54453
G1 X265.724 Y209.917 E0.04035
G1 X265.724 Y218.008 E0.54453
G1 X265.124 Y218.008 E0.04035
G1 X265.124 Y209.917 E0.54453
G1 X264.928 Y209.917 E0.01317
G1 X264.928 Y215.631 E0.38459
G1 X264.524 Y215.631 E0.02718
G1 X264.524 Y218.008 E0.15994
G1 X263.925 Y218.008 E0.04035
G1 X263.925 Y215.631 E0.15994
G1 X263.325 Y215.631 E0.04035
G1 X263.325 Y218.008 E0.15994
G1 X262.726 Y218.008 E0.04035
G1 X262.726 Y215.631 E0.15994
G1 X262.126 Y215.631 E0.04035
G1 X262.126 Y218.24 E0.17556
G1 E-4.9
;WIPE_START
G1 F6240
G1 X262.126 Y215.631 E-0.7148
G1 X262.726 Y215.631 E-0.16431
G1 X262.726 Y218.008 E-0.65121
G1 X263.325 Y218.008 E-0.16431
G1 X263.325 Y216.911 E-0.30038
;WIPE_END
G1 E-0.105 F1800
G1 Z0.5 F7800
G1 X267.526 Y227.084
G1 Z0.3
G1 E7 F1800
;TYPE:Internal perimeter
G1 X267.399 Y227.115 E0.00882
G1 X266.248 Y227.719 E0.08748
G1 X265.275 Y228.581 E0.08748
G1 X264.537 Y229.651 E0.08748
G1 X264.076 Y230.866 E0.08748
G1 X263.919 Y232.156 E0.08748
G1 X264.076 Y233.446 E0.08748
G1 X264.537 Y234.662 E0.08748
G1 X265.275 Y235.731 E0.08748
G1 X266.248 Y236.593 E0.08748
G1 X267.399 Y237.197 E0.08748
G1 X268.661 Y237.508 E0.08748
G1 X269.96 Y237.508 E0.08748
G1 X271.222 Y237.197 E0.08748
G1 X272.373 Y236.593 E0.08748
G1 X273.346 Y235.731 E0.08748
G1 X274.084 Y234.662 E0.08748
G1 X274.545 Y233.446 E0.08748
G1 X274.702 Y232.156 E0.08748
G1 X274.545 Y230.866 E0.08748
G1 X274.084 Y229.651 E0.08748
G1 X273.346 Y228.581 E0.08748
G1 X272.373 Y227.719 E0.08748
G1 X271.222 Y227.115 E0.08748
G1 X269.96 Y226.804 E0.08748
G1 X268.661 Y226.804 E0.08748
G1 X267.584 Y227.07 E0.07462
G1 X267.655 Y227.608 F7800
G1 F1800
G1 X267.591 Y227.623 E0.00441
G1 X266.557 Y228.167 E0.07866
G1 X265.682 Y228.942 E0.07866
G1 X265.018 Y229.903 E0.07866
G1 X264.604 Y230.996 E0.07866
G1 X264.463 Y232.156 E0.07866
G1 X264.604 Y233.316 E0.07866
G1 X265.018 Y234.409 E0.07866
G1 X265.682 Y235.371 E0.07866
G1 X266.557 Y236.146 E0.07866
G1 X267.591 Y236.689 E0.07866
G1 X268.726 Y236.969 E0.07866
G1 X269.895 Y236.969 E0.07866
G1 X271.03 Y236.689 E0.07866
G1 X272.064 Y236.146 E0.07866
G1 X272.939 Y235.371 E0.07866
G1 X273.603 Y234.409 E0.07866
G1 X274.017 Y233.316 E0.07866
G1 X274.158 Y232.156 E0.07866
